X:1795
T:Rub the Bag
T:Cumuil an Mala
S:1795 O'Neill's Music of Ireland
N:Either the last note or the rest in the second ending of the first part
N:should be 2 beats long.
B:O'Neill's 1795
Z:Transcribed by Robert Thorpe (thorpe@skep.com)
Z:ABCMUS 1.0
M:6/8
L:1/8
K:D
d2 d fed|cBA cec|BcB fdB|dcB fdB|
d2 d fed|cBA cec|ABA ecA|1A/-B/-cA ecA:|2A/-B/-cB d z|
|:ded def|efe dfg|fgf f2 ^g|aba a2 g|
fgf fga|gfe efe|~d3 fed|cBA ced|
BcB fdB|B/-c/-dB fdB|~dcd fed|cBA cec|
ABA ecA|A/-B/-cA d3:|


